src/public/img/icons/transfer.alt.svg

<svg width="32" height="32" viewBox="0 0 32 32" fill="none" xmlns="http://www.w3.org/2000/svg">
<path d="M4.7998 6.39999C4.7998 5.51634 5.51616 4.79999 6.3998 4.79999H26.3998C27.2835 4.79999 27.9998 5.51634 27.9998 6.39999V12C27.9998 12.8836 27.2835 13.6 26.3998 13.6H6.3998C5.51614 13.6 4.7998 12.8836 4.7998 12V6.39999Z" stroke="#111A2C" stroke-width="1.5" stroke-linecap="round" stroke-linejoin="round"/>
<path d="M4.7998 20.8C4.7998 19.9163 5.51616 19.2 6.3998 19.2H26.3998C27.2835 19.2 27.9998 19.9163 27.9998 20.8V26.4C27.9998 27.2837 27.2835 28 26.3998 28H6.3998C5.51614 28 4.7998 27.2837 4.7998 26.4V20.8Z" stroke="#111A2C" stroke-width="1.5" stroke-linecap="round" stroke-linejoin="round"/>
<path d="M23.2002 5.20001V13.2" stroke="#111A2C" stroke-width="1.5" stroke-linecap="round" stroke-linejoin="round"/>
<path d="M23.2002 19.6V27.6" stroke="#111A2C" stroke-width="1.5" stroke-linecap="round" stroke-linejoin="round"/>
</svg>

<svg xmlns="http://www.w3.org/2000/svg" width="32" height="32" fill="none">
  <path stroke="#111A2C" stroke-linecap="round" stroke-linejoin="round" stroke-width="1.5" d="M4.8 6.4a1.6 1.6 0 0 1 1.6-1.6h20A1.6 1.6 0 0 1 28 6.4V12a1.6 1.6 0 0 1-1.6 1.6h-20A1.6 1.6 0 0 1 4.8 12V6.4Zm0 14.4a1.6 1.6 0 0 1 1.6-1.6h20a1.6 1.6 0 0 1 1.6 1.6v5.6a1.6 1.6 0 0 1-1.6 1.6h-20a1.6 1.6 0 0 1-1.6-1.6v-5.6ZM23.2 5.2v8m0 6.4v8"/>
</svg>
